src/categories-icons-sprite/categories/svg-cat-books-adult.svg

<svg width="33" height="25" viewBox="0 0 33 25" fill="none" xmlns="http://www.w3.org/2000/svg">
<path class="p-FF641A" d="M32.6531 1.91333H0V25.0001H32.6531V1.91333Z" fill="#5FBEFF"/>
<path class="p-E63950" d="M32.6527 1.91333H16.3262V25.0001H32.6527V1.91333Z" fill="#4D98CB"/>
<path class="p-FFF5F5" d="M20.1528 0C18.5839 0 17.2064 0.746174 16.3263 1.91327C15.4461 0.746174 14.0686 0 12.4997 0H2.125V21.1097H13.3822C14.6259 21.1097 14.7956 22.7957 15.1974 23.9055H17.4551C17.8569 22.7957 18.0266 21.1097 19.2703 21.1097H28.7625V0H20.1528Z" fill="#B9DFFC"/>
<path class="p-EFE2DD" d="M30.5274 0V21.1097H20.1527C18.0265 21.1097 17.8568 22.7957 17.4551 23.9055H16.3262V1.91327C17.2063 0.746174 18.5838 0 20.1527 0H30.5274Z" fill="#A1D1FD"/>
<path class="p-9CDD05" d="M10.5867 9.56621C10.0589 9.56621 9.63006 9.13739 9.63006 8.60958C9.63006 8.08177 10.0589 7.65295 10.5867 7.65295C11.1145 7.65295 11.5433 8.08177 11.5433 8.60958H13.4566C13.4566 7.36404 12.6544 6.31213 11.5433 5.91589V3.82642H9.63006V5.91589C8.51897 6.31213 7.7168 7.36404 7.7168 8.60958C7.7168 10.1921 9.00417 11.4795 10.5867 11.4795C11.1145 11.4795 11.5433 11.9083 11.5433 12.4361C11.5433 12.9639 11.1145 13.3927 10.5867 13.3927C10.0589 13.3927 9.63006 12.9639 9.63006 12.4361H7.7168C7.7168 13.6816 8.51897 14.7336 9.63006 15.1298V17.2193H11.5433V15.1298C12.6544 14.7336 13.4566 13.6816 13.4566 12.4361C13.4566 10.8536 12.1692 9.56621 10.5867 9.56621Z" fill="#5FBEFF"/>
<path class="p-CDBFBA" d="M28.4661 3.82642H19.1963V5.73968H28.4661V3.82642Z" fill="#58ADE5"/>
<path class="p-CDBFBA" d="M28.4661 7.65308H19.1963V9.56634H28.4661V7.65308Z" fill="#58ADE5"/>
<path class="p-CDBFBA" d="M28.4661 11.4795H19.1963V13.3928H28.4661V11.4795Z" fill="#58ADE5"/>
<path class="p-CDBFBA" d="M28.4661 15.3062H19.1963V17.2194H28.4661V15.3062Z" fill="#58ADE5"/>
</svg>

<svg width="33" height="25" fill="none" xmlns="http://www.w3.org/2000/svg"><path class="p-FF641A" d="M32.653 1.913H0V25h32.653V1.913z" fill="#5FBEFF"/><path class="p-E63950" d="M32.653 1.913H16.326V25h16.327V1.913z" fill="#4D98CB"/><path class="p-FFF5F5" d="M20.153 0a4.765 4.765 0 00-3.827 1.913A4.765 4.765 0 0012.5 0H2.125v21.11h11.257c1.244 0 1.414 1.686 1.815 2.796h2.258c.402-1.11.572-2.796 1.815-2.796h9.492V0h-8.61z" fill="#B9DFFC"/><path class="p-EFE2DD" d="M30.527 0v21.11H20.153c-2.127 0-2.296 1.686-2.698 2.796h-1.129V1.913A4.765 4.765 0 0120.153 0h10.374z" fill="#A1D1FD"/><path class="p-9CDD05" d="M10.587 9.566a.957.957 0 11.956-.956h1.914a2.865 2.865 0 00-1.914-2.694v-2.09H9.63v2.09A2.865 2.865 0 007.717 8.61a2.873 2.873 0 002.87 2.87.957.957 0 11-.957.956H7.717c0 1.246.802 2.298 1.913 2.694v2.09h1.913v-2.09a2.865 2.865 0 001.914-2.694 2.873 2.873 0 00-2.87-2.87z" fill="#5FBEFF"/><path class="p-CDBFBA" d="M28.466 3.826h-9.27V5.74h9.27V3.826zM28.466 7.653h-9.27v1.913h9.27V7.653zM28.466 11.48h-9.27v1.913h9.27v-1.914zM28.466 15.306h-9.27v1.913h9.27v-1.913z" fill="#58ADE5"/></svg>
